X:1
T:Goldberg Variations: Variation XXVIII
T:BWV 988
T:J. S. Bach
%%score { ( 1 2 5 6 ) | ( 3 4 ) }
L:1/8
M:3/4
K:G
V:1 treble nm="Harp"
V:2 treble 
V:5 treble 
V:6 treble 
V:3 bass 
V:4 bass 
V:1
 b/ z/ z d'/ z/ z g/ z/ z | a/ z/ z d'/ z/ z f/ z/ z | g/ z/ z b/ z/ z a/ z/ z | %3
 f/ z/ z _d'/ z/ z =d'/ z/ z | gG, A,e =fd | eA, B,f g^c | b[K:bass]A, B,E, F, z | %7
 z[K:treble] c' ba gf | b/g/f/g/ e/B/A/B/ G/B/e/g/ | a/f/e/f/ d/A/G/A/ F/A/d/f/ | %10
 g/e/^d/e/ B/G/F/G/ E/G/B/=d/ | ^c/G/F/G/ E/^C/B,/C/ A,/C/E/G/ | F/ z/ z G/ z/ z A/ z/ z | %13
 B/ z/ z A/ z/ z G/ z/ z | A/ z/ z B/ z/ z A/ z/ z | F/D/^C/D/[K:bass] A,/F,/E,/F,/ D,2 | %16
[K:treble] b/ z/ z d'/ z/ z g/ z/ z | a/ z/ z d'/ z/ z f/ z/ z | g/ z/ z b/ z/ z a/ z/ z | %19
 f/ z/ z _d'/ z/ z =d'/ z/ z | gG, A,e =fd | eA, B,f g^c | b[K:bass]A, B,E, F, z | %23
 z[K:treble] c' ba gf | b/g/f/g/ e/B/A/B/ G/B/e/g/ | a/f/e/f/ d/A/G/A/ F/A/d/f/ | %26
 g/e/^d/e/ B/G/F/G/ E/G/B/=d/ | ^c/G/F/G/ E/^C/B,/C/ A,/C/E/G/ | F/ z/ z G/ z/ z A/ z/ z | %29
 B/ z/ z A/ z/ z G/ z/ z | A/ z/ z B/ z/ z A/ z/ z | F/D/^C/D/[K:bass] A,/F,/E,/F,/ D,2 | %32
[K:treble] F/A/G/A/ d/f/e/f/ a/f/c/A/ | B/d/c/d/ g/b/a/b/ d'/b/=f/d/ | eB c^D EG, | %35
 F,e ^d/f/e/f/ a/f/d/f/ | %36
 z/4 g/4a/4g/4a/4g/4a/4g/4 z/4 g/4a/4g/4a/4g/4a/4g/4 z/4 g/4a/4g/4a/4g/4a/4g/4 | %37
 z/4 g/4a/4g/4a/4g/4a/4g/4 z/4 g/4a/4g/4a/4g/4a/4g/4 z/4 g/4a/4g/4a/4g/4a/4g/4 | %38
 z/4 g/4a/4g/4a/4g/4a/4g/4 z/4 g/4a/4g/4a/4g/4a/4g/4 z/4 f/4g/4f/4g/4f/4g/4f/4 | %39
 e/G/F/G/ B/e/^d/e/ g/4=f/4e/f/4e/4=d/ | eE ^D=D ^Ce | dD ^C=C B,d | %42
 z/4 c/4d/4c/4d/4c/4d/4c/4 z/4 c/4d/4c/4d/4c/4d/4c/4 z/4 c/4d/4c/4d/4c/4d/4c/4 | %43
 z/4 c/4d/4c/4d/4c/4d/4c/4 z/4 c/4d/4c/4d/4c/4d/4c/4 z/4 c/4d/4c/4d/4c/4d/4c/4 | %44
 B/ z/ z c/ z/ z d/ z/ z | Ee =f^f g^g | a/F/E/F/ G/B/A/B/ c/A/F/D/ | G/B/A/B/ d/g/f/g/ b2 | %48
 F/A/G/A/ d/f/e/f/ a/f/c/A/ | B/d/c/d/ g/b/a/b/ d'/b/=f/d/ | eB c^D EG, | F,e ^d/f/e/f/ a/f/d/f/ | %52
 z/4 g/4a/4g/4a/4g/4a/4g/4 z/4 g/4a/4g/4a/4g/4a/4g/4 z/4 g/4a/4g/4a/4g/4a/4g/4 | %53
 z/4 g/4a/4g/4a/4g/4a/4g/4 z/4 g/4a/4g/4a/4g/4a/4g/4 z/4 g/4a/4g/4a/4g/4a/4g/4 | %54
 z/4 g/4a/4g/4a/4g/4a/4g/4 z/4 g/4a/4g/4a/4g/4a/4g/4 z/4 f/4g/4f/4g/4f/4g/4f/4 | %55
 e/G/F/G/ B/e/^d/e/ g/4=f/4e/f/4e/4=d/ | eE ^D=D ^Ce | dD ^C=C B,d | %58
 z/4 c/4d/4c/4d/4c/4d/4c/4 z/4 c/4d/4c/4d/4c/4d/4c/4 z/4 c/4d/4c/4d/4c/4d/4c/4 | %59
 z/4 c/4d/4c/4d/4c/4d/4c/4 z/4 c/4d/4c/4d/4c/4d/4c/4 z/4 c/4d/4c/4d/4c/4d/4c/4 | %60
 B/ z/ z c/ z/ z d/ z/ z | Ee =f^f g^g | a/F/E/F/ G/B/A/B/ c/A/F/D/ | %63
 G/B/A/B/ d/g/f/g/ !fermata!b2 |] %64
V:2
 z/4 d/4e/4d/4e/4d/4e/4d/4 z/4 d/4e/4d/4e/4d/4e/4d/4 z/4 d/4e/4d/4e/4d/4e/4d/4 | %1
 z/4 d/4e/4d/4e/4d/4e/4d/4 z/4 d/4e/4d/4e/4d/4e/4d/4 z/4 d/4e/4d/4e/4d/4e/4d/4 | %2
 z/4 d/4e/4d/4e/4d/4e/4d/4 z/4 d/4e/4d/4e/4d/4e/4d/4 z/4 d/4e/4d/4e/4d/4e/4d/4 | %3
 z/4 d/4e/4d/4e/4d/4e/4d/4 z/4 d/4e/4d/4e/4d/4e/4d/4 z/4 d/4e/4d/4e/4d/4e/4d/4 | z4 z B | %5
 c z z2 z a | d[K:bass]F, G,^C, D,D,, | G,,[K:treble]e dc Bc | B/ z/ z z4 | x6 | x6 | x6 | %12
 z/4 D/4E/4D/4E/4D/4E/4D/4 z/4 D/4E/4D/4E/4D/4E/4D/4 z/4 D/4E/4D/4E/4D/4E/4D/4 | %13
 z/4 D/4E/4D/4E/4D/4E/4D/4 z/4 D/4E/4D/4E/4D/4E/4D/4 z/4 D/4E/4D/4E/4D/4E/4D/4 | %14
 z/4 D/4E/4D/4E/4D/4E/4D/4 z/4 D/4E/4D/4E/4D/4E/4D/4 z/4 D/4E/4D/4E/4D/4E/4D/4 | x2[K:bass] x4 | %16
[K:treble] z/4 d/4e/4d/4e/4d/4e/4d/4 z/4 d/4e/4d/4e/4d/4e/4d/4 z/4 d/4e/4d/4e/4d/4e/4d/4 | %17
 z/4 d/4e/4d/4e/4d/4e/4d/4 z/4 d/4e/4d/4e/4d/4e/4d/4 z/4 d/4e/4d/4e/4d/4e/4d/4 | %18
 z/4 d/4e/4d/4e/4d/4e/4d/4 z/4 d/4e/4d/4e/4d/4e/4d/4 z/4 d/4e/4d/4e/4d/4e/4d/4 | %19
 z/4 d/4e/4d/4e/4d/4e/4d/4 z/4 d/4e/4d/4e/4d/4e/4d/4 z/4 d/4e/4d/4e/4d/4e/4d/4 | z4 z B | %21
 c z z2 z a | d[K:bass]F, G,^C, D,D,, | G,,[K:treble]e dc Bc | B/ z/ z z4 | x6 | x6 | x6 | %28
 z/4 D/4E/4D/4E/4D/4E/4D/4 z/4 D/4E/4D/4E/4D/4E/4D/4 z/4 D/4E/4D/4E/4D/4E/4D/4 | %29
 z/4 D/4E/4D/4E/4D/4E/4D/4 z/4 D/4E/4D/4E/4D/4E/4D/4 z/4 D/4E/4D/4E/4D/4E/4D/4 | %30
 z/4 D/4E/4D/4E/4D/4E/4D/4 z/4 D/4E/4D/4E/4D/4E/4D/4 z/4 D/4E/4D/4E/4D/4E/4D/4 | x2[K:bass] x4 | %32
[K:treble] x6 | x6 | x6 | x6 | B/ z/ z ^c/ z/ z ^d/ z/ z | e/ z/ z ^d/ z/ z e/ z/ z | %38
 ^c/ z/ z B/ z/ z A/ z/ z | x6 | x6 | x6 | E/ z/ z D/ z/ z E/ z/ z | F/ z/ z E/ z/ z F/ z/ z | %44
 z G/4G/4A/4G/4 z/4 G/4A/4G/4A/4G/4A/4G/4 z/4 =F/4G/4F/4G/4F/4G/4F/4 | x6 | x6 | x6 | x6 | x6 | %50
 x6 | x6 | B/ z/ z ^c/ z/ z ^d/ z/ z | e/ z/ z ^d/ z/ z e/ z/ z | ^c/ z/ z B/ z/ z A/ z/ z | x6 | %56
 x6 | x6 | E/ z/ z D/ z/ z E/ z/ z | F/ z/ z E/ z/ z F/ z/ z | %60
 z G/4G/4A/4G/4 z/4 G/4A/4G/4A/4G/4A/4G/4 z/4 =F/4G/4F/4G/4F/4G/4F/4 | x6 | x6 | x6 |] %64
V:3
 G,B AF, E,G | F,A GE, D,F | E,G FG, A,E | D,F EG, F,C | %4
[K:treble] z/4 G/4A/4G/4A/4G/4A/4G/4 z/4 G/4A/4G/4A/4G/4A/4G/4 z/4 G/4A/4G/4A/4G/4A/4G/4 | %5
 z/4 G/4A/4G/4A/4G/4A/4G/4 z/4 G/4A/4G/4A/4G/4A/4G/4 z/4 G/4A/4G/4A/4G/4A/4G/4 | %6
 z/4 G/4A/4G/4A/4G/4A/4G/4 z/4 G/4A/4G/4A/4G/4A/4G/4 z/4 G/4A/4G/4A/4G/4A/4G/4 | %7
 z/4 G/4A/4G/4A/4G/4A/4G/4 z/4 G/4A/4G/4A/4G/4A/4G/4 z/4 G/4A/4G/4A/4G/4A/4G/4 | %8
 G,/B,/A,/B,/ E/G/F/G/ B/G/E/^C/ | F,/A,/G,/A,/ D/F/E/F/ A/F/D/B,/ | %10
 E,/G,/F,/G,/ B,/E/^D/E/ G/E/B,/G,/ | A,/E/D/E/ G/A/G/A/ G/E/^C/A,/ | %12
[K:bass] z/4 F,/4G,/4F,/4G,/4F,/4G,/4F,/4 z/4 F,/4G,/4F,/4G,/4F,/4G,/4F,/4 z/4 F,/4G,/4F,/4G,/4F,/4G,/4F,/4 | %13
 z/4 F,/4G,/4F,/4G,/4F,/4G,/4F,/4 z/4 F,/4G,/4F,/4G,/4F,/4G,/4F,/4 z/4 F,/4G,/4F,/4G,/4F,/4G,/4F,/4 | %14
 z/4 F,/4G,/4F,/4G,/4F,/4G,/4F,/4 z/4 F,/4G,/4F,/4G,/4F,/4G,/4F,/4 z/4 F,/4G,/4F,/4G,/4F,/4G,/4F,/4 | %15
 D,,/F,,/E,,/F,,/ A,,/D,/^C,/D,/ F,2 | G,B AF, E,G | F,A GE, D,F | E,G FG, A,E | D,F EG, F,C | %20
[K:treble] z/4 G/4A/4G/4A/4G/4A/4G/4 z/4 G/4A/4G/4A/4G/4A/4G/4 z/4 G/4A/4G/4A/4G/4A/4G/4 | %21
 z/4 G/4A/4G/4A/4G/4A/4G/4 z/4 G/4A/4G/4A/4G/4A/4G/4 z/4 G/4A/4G/4A/4G/4A/4G/4 | %22
 z/4 G/4A/4G/4A/4G/4A/4G/4 z/4 G/4A/4G/4A/4G/4A/4G/4 z/4 G/4A/4G/4A/4G/4A/4G/4 | %23
 z/4 G/4A/4G/4A/4G/4A/4G/4 z/4 G/4A/4G/4A/4G/4A/4G/4 z/4 G/4A/4G/4A/4G/4A/4G/4 | %24
 G,/B,/A,/B,/ E/G/F/G/ B/G/E/^C/ | F,/A,/G,/A,/ D/F/E/F/ A/F/D/B,/ | %26
 E,/G,/F,/G,/ B,/E/^D/E/ G/E/B,/G,/ | A,/E/D/E/ G/A/G/A/ G/E/^C/A,/ | %28
[K:bass] z/4 F,/4G,/4F,/4G,/4F,/4G,/4F,/4 z/4 F,/4G,/4F,/4G,/4F,/4G,/4F,/4 z/4 F,/4G,/4F,/4G,/4F,/4G,/4F,/4 | %29
 z/4 F,/4G,/4F,/4G,/4F,/4G,/4F,/4 z/4 F,/4G,/4F,/4G,/4F,/4G,/4F,/4 z/4 F,/4G,/4F,/4G,/4F,/4G,/4F,/4 | %30
 z/4 F,/4G,/4F,/4G,/4F,/4G,/4F,/4 z/4 F,/4G,/4F,/4G,/4F,/4G,/4F,/4 z/4 F,/4G,/4F,/4G,/4F,/4G,/4F,/4 | %31
 D,,/F,,/E,,/F,,/ A,,/D,/^C,/D,/ F,2 | DE, F,C D,[K:treble]F | GA, B,=F G,B | %34
 c/G/=F/G/ E/C/B,/C/ A,/C/E/A/ | ^D/B,/^A,/B,/[K:bass] F,/^D,/^C,/D,/ B,,/D,/F,/=A,/ | %36
[K:treble] z/4 E/4F/4E/4F/4E/4F/4E/4 z/4 E/4F/4E/4F/4E/4F/4E/4 z/4 E/4F/4E/4F/4E/4F/4E/4 | %37
 z/4 E/4F/4E/4F/4E/4F/4E/4 z/4 E/4F/4E/4F/4E/4F/4E/4 z/4 E/4F/4E/4F/4E/4F/4E/4 | %38
 z/4 E/4F/4E/4F/4E/4F/4E/4 z/4 E/4F/4E/4F/4E/4F/4E/4 z/4 ^D/4E/4D/4E/4D/4E/4D/4 | %39
 E,/E/^D/E/ B,/G,/F,/G,/ E,/G,/B,/=D/ | %40
 z/4 G/4A/4G/4A/4G/4A/4G/4 z/4 G/4A/4G/4A/4G/4A/4G/4 z/4 G/4A/4G/4A/4G/4A/4G/4 | %41
 z/4 G/4A/4G/4A/4G/4A/4G/4 z/4 G/4A/4G/4A/4G/4A/4G/4 z/4 G/4A/4G/4A/4G/4A/4G/4 | %42
 A,e =f^f g[K:bass]A, | D,[K:treble]f g^g a[K:bass]D | G,G,, ^G,,A,, ^A,,B,, | %45
 z/4 C/4D/4C/4D/4C/4D/4C/4 z/4 C/4D/4C/4D/4C/4D/4C/4 z/4 _B,/4C/4B,/4C/4B,/4C/4B,/4 | %46
 F,/D/C/D/ B,/G,/F,/G,/ D,/F,/A,/C/ | B,/G,/F,/G,/ D,/B,,/A,,/B,,/ G,,2 | DE, F,C D,F | %49
 GA, B,=F G,B | c/G/=F/G/ E/C/B,/C/ A,/C/E/A/ | ^D/B,/^A,/B,/ F,/^D,/^C,/D,/ B,,/D,/F,/=A,/ | %52
 z/4 E/4F/4E/4F/4E/4F/4E/4 z/4 E/4F/4E/4F/4E/4F/4E/4 z/4 E/4F/4E/4F/4E/4F/4E/4 | %53
 z/4 E/4F/4E/4F/4E/4F/4E/4 z/4 E/4F/4E/4F/4E/4F/4E/4 z/4 E/4F/4E/4F/4E/4F/4E/4 | %54
 z/4 E/4F/4E/4F/4E/4F/4E/4 z/4 E/4F/4E/4F/4E/4F/4E/4 z/4 ^D/4E/4D/4E/4D/4E/4D/4 | %55
 E,/E/^D/E/ B,/G,/F,/G,/ E,/G,/B,/=D/ | %56
 z/4 G/4A/4G/4A/4G/4A/4G/4 z/4 G/4A/4G/4A/4G/4A/4G/4 z/4 G/4A/4G/4A/4G/4A/4G/4 | %57
 z/4 G/4A/4G/4A/4G/4A/4G/4 z/4 G/4A/4G/4A/4G/4A/4G/4 z/4 G/4A/4G/4A/4G/4A/4G/4 | A,e =f^f gA, | %59
 D,f g^g aD | G,G,, ^G,,A,, ^A,,B,, | %61
 z/4 C/4D/4C/4D/4C/4D/4C/4 z/4 C/4D/4C/4D/4C/4D/4C/4 z/4 _B,/4C/4B,/4C/4B,/4C/4B,/4 | %62
 F,/D/C/D/ B,/G,/F,/G,/ D,/F,/A,/C/ | B,/G,/F,/G,/ D,/B,,/A,,/B,,/ !fermata!G,,2 |] %64
V:4
 x6 | x6 | x6 | x6 |[K:treble] B,/ z/ z C/ z/ z D/ z/ z | C/ z/ z D/ z/ z E/ z/ z | %6
 D/ z/ z E/ z/ z A,/ z/ z | B,/ z/ z C/ z/ z D/ z/ z | x6 | x6 | x6 | x6 | %12
[K:bass] D,/ z/ z B,,/ z/ z A,,/ z/ z | G,,/ z/ z A,,/ z/ z B,,/ z/ z | %14
 A,,/ z/ z G,,/ z/ z A,,/ z/ z | x6 | x6 | x6 | x6 | x6 |[K:treble] B,/ z/ z C/ z/ z D/ z/ z | %21
 C/ z/ z D/ z/ z E/ z/ z | D/ z/ z E/ z/ z A,/ z/ z | B,/ z/ z C/ z/ z D/ z/ z | x6 | x6 | x6 | %27
 x6 |[K:bass] D,/ z/ z B,,/ z/ z A,,/ z/ z | G,,/ z/ z A,,/ z/ z B,,/ z/ z | %30
 A,,/ z/ z G,,/ z/ z A,,/ z/ z | x6 | x5[K:treble] x | x6 | x6 | x2[K:bass] x4 | %36
[K:treble] G,/ z/ z A,/ z/ z B,/ z/ z | C/ z/ z B,/ z/ z C/ z/ z | ^A,/ z/ z B,/ z/ z B,/ z/ z | %39
 x6 | C/ z/ z B,/ z/ z A,/ z/ z | B,/ z/ z A,/ z/ z G,/ z/ z | x5[K:bass] x | %43
 x[K:treble] x4[K:bass] x | x6 | C,/ z/ z D,/ z/ z E,/ z/ z | x6 | x6 | x6 | x6 | x6 | x6 | %52
 G,/ z/ z A,/ z/ z B,/ z/ z | C/ z/ z B,/ z/ z C/ z/ z | ^A,/ z/ z B,/ z/ z B,/ z/ z | x6 | %56
 C/ z/ z B,/ z/ z A,/ z/ z | B,/ z/ z A,/ z/ z G,/ z/ z | x6 | x6 | x6 | %61
 C,/ z/ z D,/ z/ z E,/ z/ z | x6 | x6 |] %64
V:5
 x6 | x6 | x6 | x6 | x6 | x6 | x[K:bass] x5 | z4[K:treble] z A | g/ z/ z z4 | x6 | x6 | x6 | x6 | %13
 x6 | x6 | x2[K:bass] x4 |[K:treble] x6 | x6 | x6 | x6 | x6 | x6 | x[K:bass] x5 | %23
 z4[K:treble] z A | g/ z/ z z4 | x6 | x6 | x6 | x6 | x6 | x6 | x2[K:bass] x4 |[K:treble] x6 | x6 | %34
 x6 | x6 | x6 | x6 | x6 | x6 | x6 | x6 | x6 | x6 | x6 | x6 | x6 | x6 | x6 | x6 | x6 | x6 | x6 | %53
 x6 | x6 | x6 | x6 | x6 | x6 | x6 | x6 | x6 | x6 | x6 |] %64
V:6
 x6 | x6 | x6 | x6 | x6 | x6 | x[K:bass] x5 | x[K:treble] x5 | d/ z/ z z4 | x6 | x6 | x6 | x6 | %13
 x6 | x6 | x2[K:bass] x4 |[K:treble] x6 | x6 | x6 | x6 | x6 | x6 | x[K:bass] x5 | x[K:treble] x5 | %24
 d/ z/ z z4 | x6 | x6 | x6 | x6 | x6 | x6 | x2[K:bass] x4 |[K:treble] x6 | x6 | x6 | x6 | x6 | x6 | %38
 x6 | x6 | x6 | x6 | x6 | x6 | x6 | x6 | x6 | x6 | x6 | x6 | x6 | x6 | x6 | x6 | x6 | x6 | x6 | %57
 x6 | x6 | x6 | x6 | x6 | x6 | x6 |] %64

